Origami/64x64/apps/y-ppa-manager.svg

<svg width="64" height="64" version="1" xmlns="http://www.w3.org/2000/svg">
 <rect transform="matrix(0,-1,-1,0,0,0)" x="-60" y="-60" width="56" height="56" rx="3" ry="3" style="fill:#d2d2d2"/>
 <path d="m7 4c-1.662 0-3 1.338-3 3v1c0-1.662 1.338-3 3-3h50c1.662 0 3 1.338 3 3v-1c0-1.662-1.338-3-3-3h-50z" style="fill:#ffffff;opacity:.1"/>
 <path d="m4 57v1c0 1.662 1.338 3 3 3h50c1.662 0 3-1.338 3-3v-1c0 1.662-1.338 3-3 3h-50c-1.662 0-3-1.338-3-3z" style="opacity:.2"/>
 <g transform="scale(2)">
  <path d="m11.5 18.25 2e-6 -4.5 3.8571-2.25 3.8571 2.25-1e-6 4.5-3.857 2.25-3.857-2.25z" style="fill:#d6ac12"/>
  <path d="m16 7v3.6921l3.8571 2.0936 3.2143-1.9286z" style="fill:#8fb635"/>
  <path d="m14.714 7v3.6921l-3.8571 2.0936-3.2143-1.9286z" style="fill:#3895bd"/>
  <path d="m23.697 11.805-3.197 1.846 0.11544 4.3872 3.2773 1.8194z" style="fill:#d18c3b"/>
  <path d="m7.1953 11.805 3.1977 1.846-0.116 4.387-3.277 1.819z" style="fill:#3941bf"/>
  <path d="m16 25v-3.6921l3.8571-2.0936 3.2143 1.9286z" style="fill:#a02c35"/>
  <path d="m14.714 25v-3.6921l-3.8571-2.0936-3.2143 1.9286z" style="fill:#bb3a84"/>
 </g>
</svg>

<svg xmlns="http://www.w3.org/2000/svg" width="64" height="64" version="1">
 <rect style="fill:#d2d2d2" width="56" height="56" x="-60" y="-60" rx="3" ry="3" transform="matrix(0,-1,-1,0,0,0)"/>
 <path style="opacity:0.1;fill:#ffffff" d="M 7 4 C 5.338 4 4 5.338 4 7 L 4 8 C 4 6.338 5.338 5 7 5 L 57 5 C 58.662 5 60 6.338 60 8 L 60 7 C 60 5.338 58.662 4 57 4 L 7 4 z"/>
 <path style="opacity:0.2" d="m 4,57 0,1 c 0,1.662 1.338,3 3,3 l 50,0 c 1.662,0 3,-1.338 3,-3 l 0,-1 c 0,1.662 -1.338,3 -3,3 L 7,60 C 5.338,60 4,58.662 4,57 Z"/>
 <g transform="scale(2,2)">
  <path style="fill:#d6ac12" d="m 11.5,18.25 2e-6,-4.5 3.8571,-2.25 3.8571,2.25 -1e-6,4.5 -3.857,2.25 -3.857,-2.25 z"/>
  <path style="fill:#8fb635" d="m 16,7 0,3.6921 3.8571,2.0936 3.2143,-1.9286 z"/>
  <path style="fill:#3895bd" d="m 14.714,7 0,3.6921 -3.8571,2.0936 -3.2143,-1.9286 z"/>
  <path style="fill:#d18c3b" d="m 23.697,11.805 -3.197,1.846 0.11544,4.3872 3.2773,1.8194 z"/>
  <path style="fill:#3941bf" d="M 7.1953,11.805 10.393,13.651 10.277,18.038 7,19.857 Z"/>
  <path style="fill:#a02c35" d="m 16,25 0,-3.6921 3.8571,-2.0936 3.2143,1.9286 z"/>
  <path style="fill:#bb3a84" d="m 14.714,25 0,-3.6921 -3.8571,-2.0936 -3.2143,1.9286 z"/>
 </g>
</svg>
